src/img/atribuicao-01.svg

<svg width="40" height="48" viewBox="0 0 40 48" fill="none" xmlns="http://www.w3.org/2000/svg">
<path d="M11.7637 14.1106H14.1257V16.4572H11.7637V14.1106Z" fill="#3B2027"/>
<path d="M9.41716 42.3538V18.8186H11.7637V16.4566H9.41716V14.1023H0V47.0315H9.41716V44.6849H14.1335V42.3538H9.41716ZM7.05515 23.5195H4.7163V18.8263H7.06287L7.05515 23.5195Z" fill="#3B2027"/>
<path d="M14.1262 11.7637H16.4728V14.1102H14.1262V11.7637Z" fill="#3B2027"/>
<path d="M16.4722 2.34644H18.8187V11.7636H16.4722V2.34644Z" fill="#3B2027"/>
<path d="M18.8188 18.8188H21.1809V21.1654H18.8188V18.8188Z" fill="#3B2027"/>
<path d="M18.8188 0H23.5274V2.34657H18.8188V0Z" fill="#3B2027"/>
<path d="M21.1812 16.4568H23.5277V18.8188H21.1812V16.4568Z" fill="#3B2027"/>
<path d="M21.1812 25.8738H23.5277V30.5824H21.1812V25.8738Z" fill="#3B2027"/>
<path d="M21.1812 32.9294H23.5277V37.638H21.1812V32.9294Z" fill="#3B2027"/>
<path d="M23.5276 2.34644H25.8742V4.69301H23.5276V2.34644Z" fill="#3B2027"/>
<path d="M23.5276 14.1106H25.8742V16.4572H23.5276V14.1106Z" fill="#3B2027"/>
<path d="M25.8738 4.69312H28.2358V14.1103H25.8738V4.69312Z" fill="#3B2027"/>
<path d="M25.8738 16.4568H37.6375V18.8188H25.8738V16.4568Z" fill="#3B2027"/>
<path d="M28.2365 42.3464H25.8745V44.693H14.1262V47.0396H32.9451V44.693H28.2365V42.3464Z" fill="#3B2027"/>
<path d="M23.5276 37.6379V42.3465H25.8742V39.9845H35.2913V42.3465H37.6379V37.6379H23.5276Z" fill="#3B2027"/>
<path d="M32.9446 42.3464H35.2912V44.693H32.9446V42.3464Z" fill="#3B2027"/>
<path d="M37.6379 23.512H25.8742V18.8188H23.5276V25.874H37.6379V30.5826H23.5276V32.9291H37.6379V37.6377H39.9999V18.8188H37.6379V23.512Z" fill="#3B2027"/>
</svg>

<svg width="40" height="48" fill="none" xmlns="http://www.w3.org/2000/svg"><path d="M11.764 14.11h2.362v2.347h-2.362v-2.346zM9.417 42.354V18.819h2.347v-2.362H9.417v-2.355H0v32.93h9.417v-2.347h4.716v-2.331H9.418zM7.055 23.52H4.716v-4.694h2.347l-.008 4.694zm7.071-11.756h2.347v2.346h-2.347v-2.346zm2.346-9.418h2.347v9.418h-2.347V2.346zm2.347 16.473h2.362v2.346h-2.362V18.82zm0-18.819h4.708v2.347H18.82V0z" fill="#3B2027"/><path d="M21.181 16.457h2.347v2.362H21.18v-2.362zm0 9.417h2.347v4.708H21.18v-4.708zm0 7.056h2.347v4.708H21.18v-4.709zm2.347-30.584h2.346v2.347h-2.346V2.346zm0 11.764h2.346v2.347h-2.346v-2.346zm2.346-9.417h2.362v9.417h-2.362V4.693zm0 11.764h11.764v2.362H25.874v-2.362zm2.362 25.889h-2.361v2.347H14.126v2.347h18.82v-2.347h-4.71v-2.347z" fill="#3B2027"/><path d="M23.528 37.638v4.709h2.346v-2.363h9.417v2.362h2.347v-4.708h-14.11z" fill="#3B2027"/><path d="M32.945 42.346h2.346v2.347h-2.346v-2.347zm4.693-18.834H25.874v-4.693h-2.346v7.055h14.11v4.709h-14.11v2.346h14.11v4.709H40v-18.82h-2.362v4.694z" fill="#3B2027"/></svg>
